X: 436
M: C|
L: 1/8
K: C
ED |\
|: ef |\
gfga gfed | fefg a2gf | e2dc efge | f2 d4 AB |\
cBAG AGFE | FDdc B2AG | AcGc EGDG | E2C2 C2 :|

